art/dp/systems_sel/3ds.svg

<svg enable-background="new 0 0 3839 468.5" height="468" viewBox="0 0 3840 468" width="3840" xmlns="http://www.w3.org/2000/svg"><g fill="#fff" transform="scale(1.0002605 .99893276421)"><path d="m2064.5 248.8h-176.5c-25.6 0-46.3 20.9-46.3 46.4v125.9c0 25.4 20.8 46.4 46.3 46.4h176.5c25.6 0 46.4-20.9 46.4-46.4v-125.9c-.1-25.5-20.8-46.4-46.4-46.4m7.5 172c0 5-4.1 9.1-9.1 9.1h-173.3c-5.1 0-9.1-4.1-9.1-9.1v-125.4c0-5 4-9 9.1-9h173.3c5 0 9.1 4 9.1 9z"/><path d="m40.5 60.5v162h-40.5v-218.7h34.6l163.9 159.2v-159.2h32.4 7.6v218.7h-31.6z"/><path d="m446.4 60.5v162h-40.5v-218.7h34.6l163.9 159.2v-159.2h32.4 7.6v218.7h-31.6z"/><path d="m1287.5 60.5v162h-40.4v-218.7h34.5l164 159.2v-159.2h32.4 7.6v218.7h-31.6z"/><path d="m334.9 3.8h7.5v218.7h-40.5v-218.7z"/><path d="m920.1 3.8h7.4v37.6h-97.6v181.1h-42.1v-181.1h-97.6v-37.6z"/><path d="m1179.5 3.8h7.5v37.6h-173.5v49.1h134.2v37.5h-134.2v56.8h173.5v37.7h-213.6v-218.7z"/><path d="m1777.1 35.8c-15.8-20.9-39.3-32-67.6-32h-162.2v218.7h162.2c28.3 0 51.8-11.1 67.6-31.9 14.8-19.4 22.7-46.2 22.7-77.5-.1-31.2-7.9-58-22.7-77.3m-66.5 149h-124.3v-143.4h1.1 123.2c38.9 0 52.7 38.6 52.7 71.6.1 33.2-13.8 71.8-52.7 71.8"/><path d="m2064.5 3.8h-176.5c-25.6 0-46.3 20.9-46.3 46.4v126c0 25.4 20.8 46.3 46.3 46.3h176.5c25.6 0 46.4-21 46.4-46.3v-126c-.1-25.5-20.8-46.4-46.4-46.4m7.5 172c0 4.9-4.1 9-9.1 9h-173.3c-5.1 0-9.1-4.1-9.1-9v-125.4c0-4.9 4-8.9 9.1-8.9h173.3c5 0 9.1 4 9.1 8.9z"/><path d="m3380 375.7c42.1 16.6 130.6 30 199.8 30 75.7 0 107.1-25.9 107.1-58.5 0-29.3-29.2-46.5-112.9-77.1-111.7-41.3-193.7-74-193.7-147.3 0-76 98.7-120.7 249.1-120.7 80.7 0 108.4 5.1 159.8 14.5l.4 72.2c-50.4-9.6-95-26-164.4-26-74.3 0-106.1 23.5-106.1 47.9 0 35.3 48.9 52.1 134.5 82.6 119.1 42.6 185.4 75.5 185.4 147.4 0 74-83 127.3-270.2 127.3-76.9 0-129.9-5-188.9-14.5v-77.8z"/><path d="m3220.7 434.4c-44.1 19.9-127.4 32.6-200.3 32.6h-278.4v-464.1h278.5c72.9 0 156.2 12.9 200.3 32.8 107.2 48.4 142.2 125.9 142.2 199.3 0 73.5-34.7 150.9-142.3 199.4m-239.1-368.7h-89.1v337.2h89.1c136.8 0 223-58.4 223-167.9 0-109.4-86.2-169.3-223-169.3"/><path d="m2546.8 213s129.9-20.7 129.9-101.6c0-79-138.3-111.4-285.5-111.4-132.8 0-220.1 16.2-220.1 16.2v71.8c60.3-14.6 118-27 196.6-27 84.3 0 148.7 25.1 148.7 60.7 0 42.8-63.6 67.3-200.7 67.3h-63v64.7h58.6c144.3 0 226.4 21.7 226.4 74.7 0 47.3-73.3 76-164.7 76-79.7 0-152.6-16.9-211.8-33.3v77.4c28.4 4.9 103.8 20 244.2 20 155.6 0 290.8-50 290.8-138.1-.2-73.9-93.9-117.4-149.4-117.4"/></g></svg>

<?xml version="1.0" encoding="UTF-8" standalone="no"?>
<svg
   enable-background="new 0 0 3839 468.5"
   viewBox="0 0 3840 468"
   version="1.1"
   id="svg12"
   sodipodi:docname="3ds.svg"
   width="3840"
   height="468"
   inkscape:version="1.3.2 (091e20e, 2023-11-25)"
   xmlns:inkscape="http://www.inkscape.org/namespaces/inkscape"
   xmlns:sodipodi="http://sodipodi.sourceforge.net/DTD/sodipodi-0.dtd"
   xmlns="http://www.w3.org/2000/svg"
   xmlns:svg="http://www.w3.org/2000/svg">
  <defs
     id="defs12" />
  <sodipodi:namedview
     id="namedview12"
     pagecolor="#ffffff"
     bordercolor="#000000"
     borderopacity="0.25"
     inkscape:showpageshadow="2"
     inkscape:pageopacity="0.0"
     inkscape:pagecheckerboard="0"
     inkscape:deskcolor="#d1d1d1"
     inkscape:zoom="0.24563688"
     inkscape:cx="1917.4645"
     inkscape:cy="236.1209"
     inkscape:window-width="1312"
     inkscape:window-height="449"
     inkscape:window-x="0"
     inkscape:window-y="23"
     inkscape:window-maximized="0"
     inkscape:current-layer="svg12" />
  <g
     id="g1"
     transform="scale(1,0.99867261)">
    <g
       id="g13"
       transform="scale(1.0002605)">
      <g
         fill="#ffffff"
         id="g12">
        <path
           d="M 2064.5,248.8 H 1888 c -25.6,0 -46.3,20.9 -46.3,46.4 v 125.9 c 0,25.4 20.8,46.4 46.3,46.4 h 176.5 c 25.6,0 46.4,-20.9 46.4,-46.4 V 295.2 c -0.1,-25.5 -20.8,-46.4 -46.4,-46.4 m 7.5,172 c 0,5 -4.1,9.1 -9.1,9.1 h -173.3 c -5.1,0 -9.1,-4.1 -9.1,-9.1 V 295.4 c 0,-5 4,-9 9.1,-9 h 173.3 c 5,0 9.1,4 9.1,9 z"
           id="path1" />
        <path
           d="m 40.5,60.5 v 162 H 0 V 3.8 H 34.6 L 198.5,163 V 3.8 h 32.4 7.6 v 218.7 h -31.6 z"
           id="path2" />
        <path
           d="m 446.4,60.5 v 162 H 405.9 V 3.8 h 34.6 L 604.4,163 V 3.8 h 32.4 7.6 v 218.7 h -31.6 z"
           id="path3" />
        <path
           d="m 1287.5,60.5 v 162 h -40.4 V 3.8 h 34.5 l 164,159.2 V 3.8 h 32.4 7.6 V 222.5 H 1454 Z"
           id="path4" />
        <path
           d="m 334.9,3.8 h 7.5 V 222.5 H 301.9 V 3.8 Z"
           id="path5" />
        <path
           d="m 920.1,3.8 h 7.4 V 41.4 H 829.9 V 222.5 H 787.8 V 41.4 H 690.2 V 3.8 Z"
           id="path6" />
        <path
           d="m 1179.5,3.8 h 7.5 v 37.6 h -173.5 v 49.1 h 134.2 V 128 h -134.2 v 56.8 H 1187 v 37.7 H 973.4 V 3.8 Z"
           id="path7" />
        <path
           d="m 1777.1,35.8 c -15.8,-20.9 -39.3,-32 -67.6,-32 h -162.2 v 218.7 h 162.2 c 28.3,0 51.8,-11.1 67.6,-31.9 14.8,-19.4 22.7,-46.2 22.7,-77.5 -0.1,-31.2 -7.9,-58 -22.7,-77.3 m -66.5,149 H 1586.3 V 41.4 h 1.1 123.2 c 38.9,0 52.7,38.6 52.7,71.6 0.1,33.2 -13.8,71.8 -52.7,71.8"
           id="path8" />
        <path
           d="M 2064.5,3.8 H 1888 c -25.6,0 -46.3,20.9 -46.3,46.4 v 126 c 0,25.4 20.8,46.3 46.3,46.3 h 176.5 c 25.6,0 46.4,-21 46.4,-46.3 V 50.2 C 2110.8,24.7 2090.1,3.8 2064.5,3.8 m 7.5,172 c 0,4.9 -4.1,9 -9.1,9 h -173.3 c -5.1,0 -9.1,-4.1 -9.1,-9 V 50.4 c 0,-4.9 4,-8.9 9.1,-8.9 h 173.3 c 5,0 9.1,4 9.1,8.9 z"
           id="path9" />
        <path
           d="m 3380,375.7 c 42.1,16.6 130.6,30 199.8,30 75.7,0 107.1,-25.9 107.1,-58.5 0,-29.3 -29.2,-46.5 -112.9,-77.1 -111.7,-41.3 -193.7,-74 -193.7,-147.3 0,-76 98.7,-120.7 249.1,-120.7 80.7,0 108.4,5.1 159.8,14.5 l 0.4,72.2 c -50.4,-9.6 -95,-26 -164.4,-26 -74.3,0 -106.1,23.5 -106.1,47.9 0,35.3 48.9,52.1 134.5,82.6 119.1,42.6 185.4,75.5 185.4,147.4 0,74 -83,127.3 -270.2,127.3 -76.9,0 -129.9,-5 -188.9,-14.5 v -77.8 z"
           id="path10" />
        <path
           d="M 3220.7,434.4 C 3176.6,454.3 3093.3,467 3020.4,467 H 2742 V 2.9 h 278.5 c 72.9,0 156.2,12.9 200.3,32.8 C 3328,84.1 3363,161.6 3363,235 c 0,73.5 -34.7,150.9 -142.3,199.4 M 2981.6,65.7 h -89.1 v 337.2 h 89.1 c 136.8,0 223,-58.4 223,-167.9 0,-109.4 -86.2,-169.3 -223,-169.3"
           id="path11" />
        <path
           d="m 2546.8,213 c 0,0 129.9,-20.7 129.9,-101.6 C 2676.7,32.4 2538.4,0 2391.2,0 2258.4,0 2171.1,16.2 2171.1,16.2 V 88 c 60.3,-14.6 118,-27 196.6,-27 84.3,0 148.7,25.1 148.7,60.7 0,42.8 -63.6,67.3 -200.7,67.3 h -63 v 64.7 h 58.6 c 144.3,0 226.4,21.7 226.4,74.7 0,47.3 -73.3,76 -164.7,76 -79.7,0 -152.6,-16.9 -211.8,-33.3 v 77.4 c 28.4,4.9 103.8,20 244.2,20 155.6,0 290.8,-50 290.8,-138.1 C 2696,256.5 2602.3,213 2546.8,213"
           id="path12" />
      </g>
    </g>
  </g>
</svg>
